Sources/FrostedUI/Resources/Icons.xcassets/reply24.imageset/reply-24.svg

<svg width="24" height="24" viewBox="0 0 24 24" fill="none" xmlns="http://www.w3.org/2000/svg" data-fui-icon="true">
  <path
    d="M10.0703 3.31888C10.874 2.79028 11.9987 3.35614 11.999 4.36966V7.75735C15.9057 7.84973 18.6421 8.69218 20.3789 10.6958C22.1974 12.7944 22.749 15.9846 22.749 20.2495C22.7488 20.5972 22.5102 20.8991 22.1719 20.979C21.8335 21.0588 21.4836 20.8955 21.3281 20.5845L21.999 20.2495H21.998L21.3281 20.5845C20.5616 19.0514 20.0871 18.0842 18.8799 17.4019C17.7011 16.736 15.7417 16.3035 11.999 16.2534V19.6284C11.999 20.7095 10.72 21.2811 9.91504 20.5591L1.41309 12.9292C0.86038 12.4326 0.859767 11.5654 1.41309 11.0689L9.91504 3.439L10.0703 3.31888ZM2.62207 11.9986L10.499 19.0679V15.4995C10.4993 15.0858 10.8354 14.75 11.249 14.7495C15.5118 14.7495 17.9981 15.1808 19.6182 16.0962C20.2503 16.4535 20.7369 16.8783 21.1367 17.3472C20.9079 14.733 20.3172 12.9154 19.2451 11.6783C17.8409 10.0584 15.4393 9.24954 11.249 9.24954C10.8353 9.24908 10.4993 8.91328 10.499 8.49954V4.93021L2.62207 11.9986Z"
    fill="currentColor"
  />
</svg>

<svg xmlns="http://www.w3.org/2000/svg" width="24" height="24" fill="none" data-fui-icon="true" viewBox="0 0 24 24"><path fill="currentColor" d="M10.07 3.319C10.874 2.79 12 3.356 12 4.369v3.388c3.907.093 6.643.935 8.38 2.939 1.818 2.098 2.37 5.289 2.37 9.554a.75.75 0 0 1-1.42.334l.67-.334h-.001l-.67.334c-.766-1.533-1.24-2.5-2.448-3.182-1.179-.666-3.138-1.099-6.881-1.149v3.375c0 1.081-1.279 1.653-2.084.931l-8.502-7.63a1.25 1.25 0 0 1 0-1.86l8.502-7.63zm-7.448 8.68 7.877 7.069v-3.569c0-.413.336-.749.75-.75 4.263 0 6.75.432 8.37 1.347a5.6 5.6 0 0 1 1.518 1.251c-.23-2.614-.82-4.432-1.892-5.669-1.404-1.62-3.806-2.428-7.996-2.428a.75.75 0 0 1-.75-.75V4.93z"/></svg>
